X: 1
T: Ladies Of Carrick, The
M: 6/8
L: 1/8
R: jig
K: Amix
|:eAA edc|eAA eaf|eAA edc|fBB Baf|
eAA edc|eAA efg|fed edc|fBB ~B3:|
|:ecc acc|ecc efg|ecc acc|fBB ~B3|
ecc acc|ecc efg|fed edc|fBB Baf:|
